assets/images/logo.svg

<svg width="73" height="29" viewBox="0 0 73 29" fill="none" xmlns="http://www.w3.org/2000/svg">
<path fill-rule="evenodd" clip-rule="evenodd" d="M37.8797 8.98333V10.848C37.8797 11.9833 37.6045 12.8517 37.0549 13.4538C36.5049 14.0563 35.6933 14.3573 34.6201 14.3573C33.5467 14.3573 32.7349 14.0534 32.1853 13.4451C31.6352 12.8367 31.3604 11.9644 31.3604 10.8281V3.52917C31.3604 2.39291 31.6352 1.52087 32.1853 0.91239C32.7349 0.304238 33.5467 0 34.6201 0C35.6933 0 36.5049 0.304238 37.0549 0.91239C37.6045 1.52087 37.8797 2.39291 37.8797 3.52917V4.89254H35.8125V3.38892C35.8125 2.88083 35.7097 2.52323 35.5044 2.31612C35.2988 2.10884 35.0241 2.00537 34.6796 2.00537C34.335 2.00537 34.0599 2.10917 33.8549 2.3166C33.6492 2.52437 33.5467 2.88262 33.5467 3.39153V10.9859C33.5467 11.4948 33.6492 11.8498 33.8549 12.0508C34.0599 12.2517 34.335 12.3521 34.6796 12.3521C35.0241 12.3521 35.2988 12.2517 35.5044 12.0513C35.7097 11.8508 35.8125 11.4966 35.8125 10.9887V8.98333H37.8797Z" fill="#3E4B6B"/>
<path fill-rule="evenodd" clip-rule="evenodd" d="M43.9813 10.1262L45.4718 0.1604H48.5129V14.1969H46.4458V4.13063L44.9352 14.1969H42.8681L41.2383 4.27104V14.1969H39.3301V0.1604H42.3712L43.9813 10.1262Z" fill="#3E4B6B"/>
<path fill-rule="evenodd" clip-rule="evenodd" d="M52.5073 9.74538H54.6144L53.5607 2.64702L52.5073 9.74538ZM57.4961 14.1969H55.2899L54.9123 11.6502H52.229L51.8514 14.1969H49.8438L52.0701 0.1604H55.2699L57.4961 14.1969Z" fill="#3E4B6B"/>
<path fill-rule="evenodd" clip-rule="evenodd" d="M61.0145 2.16545V6.91791H62.0481C62.3923 6.91791 62.6573 6.82452 62.843 6.6371C63.0283 6.45 63.1214 6.10265 63.1214 5.59439V3.48913C63.1214 2.98103 63.0283 2.63368 62.843 2.44642C62.6573 2.25932 62.3923 2.16545 62.0481 2.16545H61.0145ZM62.0481 0.1604C63.1478 0.1604 63.9662 0.454552 64.5028 1.04269C65.0394 1.63099 65.3078 2.49311 65.3078 3.62937V5.45399C65.3078 6.59057 65.0394 7.45269 64.5028 8.04083C63.9662 8.62913 63.1478 8.92312 62.0481 8.92312H61.0145V14.1969H58.8281V0.1604H62.0481Z" fill="#3E4B6B"/>
<path fill-rule="evenodd" clip-rule="evenodd" d="M66.2422 0.160522H73V2.16557H70.7142V14.1968H68.5278V2.16557H66.2422V0.160522Z" fill="#3E4B6B"/>
<path fill-rule="evenodd" clip-rule="evenodd" d="M35.3088 18.7009C35.3088 18.2556 35.2152 17.9423 35.0282 17.7606C34.8407 17.579 34.5904 17.4882 34.2765 17.4882C33.9625 17.4882 33.7118 17.579 33.525 17.7606C33.3373 17.9423 33.2441 18.2556 33.2441 18.7009V20.0191H31.3604V18.8239C31.3604 17.8283 31.6109 17.0636 32.112 16.5301C32.6131 15.9971 33.3528 15.7305 34.3308 15.7305C35.3088 15.7305 36.0484 15.9971 36.5496 16.5301C37.0506 17.0636 37.3012 17.8283 37.3012 18.8239V25.2217C37.3012 26.2177 37.0506 26.9823 36.5496 27.5156C36.0484 28.0487 35.3088 28.315 34.3308 28.315C33.3528 28.315 32.6131 28.0513 32.112 27.5235C31.6109 26.9954 31.3604 26.2343 31.3604 25.2393V23.6047H33.2441V25.3623C33.2441 25.8078 33.3373 26.118 33.525 26.2937C33.7118 26.4698 33.9625 26.5576 34.2765 26.5576C34.5904 26.5576 34.8407 26.4693 35.0282 26.2928C35.2152 26.1162 35.3088 25.8042 35.3088 25.3566V22.8137H33.6604V21.0561H35.3088V18.7009Z" fill="#3E4B6B"/>
<path fill-rule="evenodd" clip-rule="evenodd" d="M40.6703 28.1746H38.6777V15.871H40.6703V21.1439H42.9343V15.871H44.963V28.1746H42.9343V22.9016H40.6703V28.1746Z" fill="#3E4B6B"/>
<path fill-rule="evenodd" clip-rule="evenodd" d="M48.9105 21.056H51.6454V22.8138H48.9105V26.4168H52.3519V28.1746H46.918V15.871H52.3519V17.6287H48.9105V21.056Z" fill="#3E4B6B"/>
<path fill-rule="evenodd" clip-rule="evenodd" d="M55.7572 17.6287V21.7942H56.699C57.0129 21.7942 57.2543 21.7123 57.4236 21.5482C57.5923 21.3842 57.6768 21.0796 57.6768 20.6342V18.7887C57.6768 18.3434 57.5923 18.0389 57.4236 17.8749C57.2543 17.7109 57.0129 17.6287 56.699 17.6287H55.7572ZM56.699 15.871C57.701 15.871 58.4467 16.1288 58.9357 16.6444C59.4249 17.1602 59.6694 17.916 59.6694 18.9119V20.5113C59.6694 21.5074 59.4249 22.2631 58.9357 22.7785C58.4467 23.2944 57.701 23.5519 56.699 23.5519H55.7572V28.1746H53.7646V15.871H56.699Z" fill="#3E4B6B"/>
<path fill-rule="evenodd" clip-rule="evenodd" d="M62.767 28.1746H60.7744V15.871H66.0453V17.6287H62.767V28.1746Z" fill="#3E4B6B"/>
<path fill-rule="evenodd" clip-rule="evenodd" d="M68.9424 25.3446C68.9424 25.7902 69.0358 26.1035 69.2233 26.2849C69.4103 26.467 69.6608 26.5576 69.9747 26.5576C70.2887 26.5576 70.5391 26.467 70.7266 26.2849C70.9136 26.1035 71.0071 25.7902 71.0071 25.3446V18.7009C71.0071 18.2556 70.9136 17.9423 70.7266 17.7606C70.5391 17.5792 70.2887 17.4882 69.9747 17.4882C69.6608 17.4882 69.4103 17.5792 69.2233 17.7606C69.0358 17.9423 68.9424 18.2556 68.9424 18.7009V25.3446ZM66.9502 18.8239C66.9502 17.8283 67.2096 17.0636 67.7289 16.5301C68.2482 15.9971 68.9969 15.7305 69.9747 15.7305C70.953 15.7305 71.7015 15.9971 72.221 16.5301C72.7398 17.0636 72.9997 17.8283 72.9997 18.8239V25.2217C72.9997 26.2177 72.7398 26.9823 72.221 27.5156C71.7015 28.0487 70.953 28.315 69.9747 28.315C68.9969 28.315 68.2482 28.0487 67.7289 27.5156C67.2096 26.9823 66.9502 26.2177 66.9502 25.2217V18.8239Z" fill="#3E4B6B"/>
<path fill-rule="evenodd" clip-rule="evenodd" d="M23.4924 28.2168C22.5165 28.2168 21.5988 27.8213 20.9093 27.1039C20.2185 26.3873 19.8389 25.4334 19.8389 24.4177C19.8389 23.4038 20.2185 22.4499 20.9074 21.7337C21.5977 21.0157 22.5154 20.6202 23.4911 20.6202C24.4667 20.6202 25.3836 21.0144 26.0726 21.7319C27.4967 23.2138 27.4967 25.6244 26.0726 27.1057C25.3836 27.8226 24.4672 28.2168 23.4924 28.2168Z" fill="#EDC128"/>
<path fill-rule="evenodd" clip-rule="evenodd" d="M3.65355 7.78663C2.67782 7.78663 1.76008 7.39112 1.06996 6.67315C0.380317 5.95648 0 5.0026 0 3.98739C0 2.97299 0.37918 2.0196 1.06817 1.30358C1.75895 0.584963 2.677 0.189453 3.65306 0.189453C4.62781 0.189453 5.5449 0.584312 6.2334 1.30114C6.92417 2.01911 7.30417 2.97348 7.30417 3.98804C7.30417 5.00309 6.92417 5.95697 6.23405 6.67494C5.5449 7.39177 4.6283 7.78663 3.65355 7.78663Z" fill="#EDC128"/>
<path fill-rule="evenodd" clip-rule="evenodd" d="M23.3291 7.787C22.3526 7.787 21.4357 7.39149 20.746 6.67417C19.3226 5.193 19.3214 2.78333 20.7438 1.3033C21.4341 0.585329 22.3515 0.189331 23.328 0.189331C24.3034 0.189331 25.2205 0.584841 25.9101 1.30216C27.3334 2.78284 27.3334 5.19365 25.9101 6.67661C25.221 7.39214 24.3039 7.787 23.3291 7.787Z" fill="#4C98C0"/>
<path fill-rule="evenodd" clip-rule="evenodd" d="M3.74844 28.2168C2.77271 28.2168 1.85497 27.8213 1.1642 27.1039C0.474559 26.3868 0.0950541 25.4334 0.095704 24.4182C0.095704 23.4038 0.476346 22.4499 1.16631 21.7326C1.3109 21.5813 1.47368 21.4428 1.68066 21.2976C1.74304 21.2523 1.80071 21.2165 1.86001 21.1788C1.99518 21.0981 2.13002 21.0246 2.2556 20.9645C2.32399 20.9328 2.39434 20.8998 2.46826 20.8705C2.59953 20.8199 2.74606 20.7745 2.9134 20.7333C2.94686 20.7239 2.97643 20.7158 3.00632 20.7068C3.02501 20.7016 3.0432 20.6951 3.06221 20.6902L3.87516 20.6326C3.97832 20.6373 4.08863 20.651 4.20625 20.6668L4.25271 20.6733C4.28033 20.6769 4.31769 20.6798 4.35506 20.6821L4.38804 20.6845L4.42524 20.6922H4.45741C4.51687 20.6944 4.57633 20.6956 4.63514 20.6956C6.03635 20.6956 7.41969 20.0747 8.43051 18.9932C9.43711 17.9163 9.99158 16.4675 9.95178 15.0176L9.95064 14.9746L9.94284 14.9299C9.93537 14.8893 9.9331 14.8482 9.9305 14.8075C9.92709 14.7587 9.92302 14.7104 9.91734 14.6616L9.90824 14.5762C9.90028 14.5031 9.89248 14.4319 9.88793 14.359L9.95016 13.5105C9.95405 13.4894 9.96153 13.4698 9.96705 13.4493L9.98184 13.397C10.0194 13.2362 10.0593 13.075 10.1178 12.9191C10.1477 12.8303 10.1765 12.7649 10.2077 12.6979C10.2726 12.5496 10.3399 12.4148 10.4192 12.2765C10.4536 12.2164 10.4871 12.1559 10.5269 12.097C10.6742 11.8733 10.8084 11.7022 10.9477 11.5574C11.6373 10.84 12.5542 10.4452 13.5314 10.4452C14.5067 10.4452 15.4249 10.8394 16.115 11.5562C17.5373 13.0374 17.5362 15.4479 16.1117 16.9294C15.9678 17.0795 15.8044 17.2173 15.5969 17.3649C15.5362 17.4079 15.4786 17.4438 15.4208 17.4791C15.2897 17.5608 15.1573 17.6332 15.0255 17.6963C14.9542 17.7298 14.8829 17.7638 14.8139 17.7905C14.6741 17.8445 14.526 17.8904 14.3703 17.9269L14.2828 17.9522C14.2628 17.9581 14.2436 17.9646 14.2238 17.97L13.4031 18.0305C13.3067 18.0264 13.206 18.0129 13.0991 17.9986L13.0262 17.9893C13.0018 17.9851 12.9633 17.9822 12.9249 17.9799L12.896 17.977L12.8541 17.9687H12.8213C12.7614 17.9664 12.7025 17.9657 12.6431 17.9657C11.2417 17.9657 9.85902 18.5859 8.84868 19.6675C7.8416 20.745 7.28729 22.195 7.32693 23.6449L7.32806 23.688L7.33586 23.731C7.34333 23.7723 7.34496 23.8128 7.34837 23.854C7.35162 23.9028 7.35584 23.9509 7.36137 23.9993C7.36315 24.0282 7.36868 24.0804 7.37501 24.1319C7.38103 24.1899 7.3885 24.2466 7.3885 24.3046V24.3253L7.32953 25.1384C7.32595 25.1557 7.29963 25.2492 7.29232 25.2785C7.25268 25.4541 7.20817 25.6094 7.15829 25.7487C7.131 25.8266 7.10338 25.8937 7.07122 25.9635C7.00769 26.1078 6.93881 26.2461 6.86067 26.3868C6.82606 26.4442 6.78545 26.5119 6.74419 26.5768C6.60837 26.7817 6.47369 26.9539 6.32943 27.1046C5.64141 27.8213 4.72449 28.2168 3.74892 28.2168H3.74844Z" fill="#EDC128"/>
<path fill-rule="evenodd" clip-rule="evenodd" d="M13.6103 28.2167C12.6337 28.2167 11.716 27.8212 11.0258 27.1033C10.3362 26.3861 9.9567 25.4329 9.95606 24.4177C9.95557 23.4038 10.3351 22.4504 11.0242 21.7348C11.1651 21.5878 11.3246 21.4524 11.5431 21.2952C11.5972 21.2572 11.6555 21.2199 11.7166 21.1835C11.8507 21.0998 11.9796 21.0292 12.1138 20.9651C12.185 20.9316 12.2547 20.8981 12.3255 20.8704C12.4612 20.8185 12.6087 20.7733 12.7655 20.7374C12.7655 20.7374 12.894 20.6986 12.9104 20.6944L13.7362 20.6314C13.8336 20.6362 13.9387 20.651 14.0487 20.6654L14.1098 20.6739C14.1504 20.678 14.1844 20.6816 14.2185 20.682C14.232 20.6832 14.2455 20.6832 14.2586 20.6845L14.2845 20.6881L14.3191 20.6916C14.3795 20.6933 14.4407 20.6951 14.5012 20.6951C15.8998 20.6944 17.2807 20.0747 18.2894 18.9943C19.296 17.918 19.8503 16.4674 19.8107 15.0175L19.8056 14.8405L19.7905 14.821C19.7897 14.815 19.7897 14.808 19.7892 14.8015C19.787 14.7603 19.7847 14.7186 19.7806 14.6768L19.7671 14.555C19.7598 14.4879 19.7512 14.4221 19.7489 14.3549L19.8056 13.5328C19.8102 13.5128 19.8385 13.4111 19.8451 13.3805C19.8916 13.1839 19.9324 13.0401 19.9788 12.9126C20.0046 12.8361 20.0365 12.766 20.0687 12.6926C20.127 12.56 20.1954 12.4253 20.2792 12.2771L20.295 12.2499C20.3232 12.2 20.3502 12.1505 20.3837 12.1024C20.5331 11.8757 20.666 11.7051 20.8062 11.5591C21.4967 10.8411 22.4147 10.4458 23.3908 10.4458C24.366 10.4458 25.2826 10.8405 25.9723 11.5573C27.3954 13.038 27.3954 15.4495 25.9723 16.9318C25.8342 17.0748 25.6694 17.2131 25.455 17.3671C25.4137 17.3968 25.3741 17.4213 25.3346 17.4461L25.2706 17.4872C25.1484 17.5627 25.0154 17.6351 24.8859 17.6968C24.813 17.7309 24.7441 17.7638 24.6715 17.7921C24.5436 17.8422 24.4029 17.8845 24.2252 17.9288C24.1896 17.9374 24.1607 17.9468 24.1324 17.9558C24.1126 17.961 24.0939 17.9675 24.0746 17.9722L23.2629 18.0304C23.1442 18.0252 23.0157 18.007 22.8912 17.9899C22.8488 17.9846 22.8158 17.9829 22.7835 17.981C22.7713 17.9805 22.7588 17.9805 22.7463 17.9786L22.6773 17.9711C22.6167 17.9686 22.5569 17.9675 22.4969 17.9675C21.0972 17.9675 19.7161 18.5877 18.7063 19.6681C17.7005 20.7455 17.1467 22.1949 17.1874 23.6462L17.1884 23.6886L17.1965 23.7304C17.2043 23.7732 17.206 23.8175 17.2089 23.8604C17.2116 23.905 17.2151 23.9488 17.2196 23.9916C17.2224 24.0275 17.2276 24.0734 17.232 24.1181C17.2394 24.1823 17.2467 24.247 17.2485 24.3111L17.1884 25.1449C17.184 25.163 17.1528 25.2756 17.1528 25.2756C17.1137 25.4522 17.0701 25.6068 17.0188 25.7522C16.9944 25.8204 16.9655 25.8865 16.9361 25.9555L16.926 25.9794C16.8656 26.1154 16.7975 26.2494 16.7217 26.3807C16.6845 26.4455 16.6476 26.5091 16.6086 26.5691C16.4655 26.7849 16.3308 26.957 16.1865 27.1081C15.5003 27.8225 14.585 28.2167 13.6103 28.2167Z" fill="#4C98C0"/>
<path fill-rule="evenodd" clip-rule="evenodd" d="M3.75023 17.9604C2.77433 17.9604 1.85709 17.5656 1.16745 16.8487C0.477485 16.1303 0.0971675 15.1764 0.0966802 14.1614C0.0961928 13.1475 0.475048 12.1947 1.16469 11.4779C1.30619 11.3308 1.47076 11.1919 1.68244 11.0401C1.73784 11.0013 1.80007 10.9618 1.86229 10.9229C1.98852 10.8453 2.11751 10.7741 2.25495 10.7082C2.32562 10.6747 2.3958 10.6418 2.47037 10.613C2.60456 10.5616 2.75273 10.5165 2.90722 10.4804L2.99999 10.4534C3.01705 10.4482 3.03346 10.4423 3.05051 10.4381L3.87694 10.3763C3.98433 10.381 4.10049 10.3969 4.22201 10.414L4.24751 10.4176C4.28992 10.4222 4.32273 10.4241 4.35604 10.4257C4.3679 10.4262 4.37976 10.4262 4.39178 10.428L4.42719 10.4345L4.46066 10.4358C4.52191 10.4376 4.58234 10.4388 4.64294 10.4388C6.0409 10.4388 7.42197 9.81905 8.431 8.73794C9.43711 7.66058 9.99093 6.21065 9.95064 4.76007L9.94967 4.71825L9.94171 4.67709C9.93326 4.63105 9.93212 4.58468 9.9292 4.53766C9.92709 4.49943 9.92465 4.46103 9.92075 4.42117L9.90824 4.30403C9.89979 4.23456 9.89118 4.16379 9.88972 4.09335L9.94447 3.29533L9.94967 3.27711V3.26116C9.95422 3.24294 9.98411 3.13703 9.98411 3.13703C10.0306 2.93285 10.0718 2.78528 10.1183 2.65496C10.1441 2.58322 10.1766 2.51147 10.2091 2.43728C10.2686 2.30094 10.3383 2.16249 10.4187 2.02192L10.4312 2.00012C10.4627 1.94529 10.4939 1.89063 10.5295 1.83596C10.6742 1.61762 10.8073 1.44696 10.9464 1.30281C11.6366 0.585004 12.5542 0.189331 13.5308 0.189331C14.5065 0.189331 15.4237 0.584353 16.114 1.30151C17.5373 2.78268 17.536 5.19365 16.1122 6.67433C15.9714 6.8214 15.8034 6.96327 15.5979 7.10807C15.542 7.14923 15.4938 7.17868 15.4439 7.20927L15.4169 7.2257C15.2829 7.30867 15.151 7.38107 15.0265 7.44046C14.9529 7.47592 14.8839 7.50814 14.8139 7.53514C14.6769 7.58818 14.5315 7.63292 14.3674 7.6723C14.333 7.68108 14.3018 7.69052 14.2708 7.69947C14.2521 7.70467 14.2329 7.71102 14.2136 7.7159L13.404 7.77479C13.3017 7.76942 13.1919 7.75527 13.0768 7.73998L13.0273 7.73363C12.9899 7.72875 12.9553 7.72712 12.922 7.72468C12.9085 7.72419 12.8949 7.72419 12.8814 7.72175L12.8541 7.71818L12.8185 7.71541C12.7581 7.71297 12.698 7.71167 12.6376 7.71167C11.2391 7.71167 9.85788 8.33137 8.84868 9.41134C7.84209 10.4887 7.28778 11.9393 7.32742 13.3905L7.32855 13.4328L7.3357 13.4746C7.34447 13.5169 7.3461 13.561 7.34886 13.6041C7.35162 13.6487 7.35503 13.6923 7.35958 13.7371C7.36299 13.7724 7.36803 13.8176 7.37323 13.8625C7.38005 13.9259 7.38801 13.9883 7.38899 14.0514L7.33066 14.8793C7.32644 14.9003 7.31946 14.9221 7.31328 14.9446L7.29281 15.0188C7.2522 15.2041 7.20931 15.3583 7.16041 15.4953C7.13458 15.5672 7.10095 15.6412 7.06764 15.7172C7.0077 15.8537 6.93979 15.9886 6.86067 16.1262C6.82282 16.1921 6.78756 16.2539 6.74971 16.3122C6.59992 16.5382 6.47077 16.7039 6.32992 16.8494C5.64028 17.5662 4.72449 17.9604 3.75023 17.9604Z" fill="#4C98C0"/>
</svg>

<svg width="73" height="29" fill="none" xmlns="http://www.w3.org/2000/svg"><path fill-rule="evenodd" clip-rule="evenodd" d="M37.88 8.983v1.865c0 1.135-.276 2.004-.825 2.606-.55.602-1.362.903-2.435.903s-1.885-.304-2.435-.912c-.55-.608-.825-1.48-.825-2.617V3.53c0-1.136.275-2.008.825-2.617C32.735.304 33.547 0 34.62 0s1.885.304 2.435.912c.55.609.825 1.48.825 2.617v1.364h-2.068V3.389c0-.508-.102-.866-.308-1.073-.205-.207-.48-.31-.824-.31-.345 0-.62.103-.825.31-.206.208-.308.567-.308 1.076v7.594c0 .509.102.864.308 1.065.205.2.48.301.825.301.344 0 .619-.1.824-.3.206-.201.309-.555.309-1.063V8.983h2.067zm6.101 1.143L45.471.16h3.042v14.037h-2.067V4.13l-1.51 10.066h-2.068l-1.63-9.926v9.926H39.33V.16h3.041l1.61 9.966zm8.526-.381h2.107l-1.053-7.098-1.054 7.098zm4.99 4.452H55.29l-.378-2.547H52.23l-.378 2.547h-2.007L52.07.16h3.2l2.226 14.037zm3.517-12.032v4.753h1.034c.344 0 .61-.093.795-.28.185-.188.278-.535.278-1.044V3.49c0-.508-.093-.855-.278-1.043-.186-.187-.45-.28-.795-.28h-1.034zM62.048.16c1.1 0 1.918.295 2.455.883.536.588.805 1.45.805 2.586v1.825c0 1.137-.269 1.999-.805 2.587-.537.588-1.355.882-2.455.882h-1.034v5.274h-2.186V.16h3.22zm4.194 0H73v2.006h-2.286v12.03h-2.186V2.167h-2.286V.16zM35.309 18.7c0-.444-.094-.758-.28-.94-.188-.181-.439-.272-.753-.272s-.564.091-.751.273c-.188.181-.28.495-.28.94v1.318H31.36v-1.195c0-.996.25-1.76.752-2.294.501-.533 1.24-.8 2.219-.8.978 0 1.717.267 2.219.8.5.534.751 1.298.751 2.294v6.398c0 .996-.25 1.76-.751 2.294-.502.533-1.241.799-2.22.799-.977 0-1.717-.264-2.218-.792-.501-.528-.752-1.289-.752-2.284v-1.634h1.884v1.757c0 .446.093.756.281.932.187.176.438.264.752.264.313 0 .564-.089.751-.265.187-.177.28-.489.28-.936v-2.543H33.66v-1.758h1.649v-2.355zm5.361 9.475h-1.992V15.87h1.992v5.273h2.264V15.87h2.029v12.304h-2.029v-5.273H40.67v5.273zm8.24-7.119h2.735v1.758H48.91v3.603h3.442v1.758h-5.434V15.87h5.434v1.758H48.91v3.427zm6.847-3.427v4.165h.942c.314 0 .555-.082.725-.246.168-.164.253-.468.253-.914V18.79c0-.446-.085-.75-.253-.914-.17-.164-.411-.246-.725-.246h-.942zm.942-1.758c1.002 0 1.748.258 2.237.773.489.516.733 1.272.733 2.268v1.6c0 .995-.244 1.751-.733 2.267-.49.515-1.235.773-2.237.773h-.942v4.623h-1.992V15.87h2.934zm6.068 12.304h-1.993V15.87h5.271v1.758h-3.278v10.546zm6.175-2.83c0 .445.094.759.281.94.187.182.438.273.752.273s.564-.091.752-.273c.187-.181.28-.495.28-.94V18.7c0-.445-.093-.759-.28-.94-.188-.182-.438-.273-.752-.273s-.565.091-.752.273c-.187.181-.28.495-.28.94v6.644zm-1.992-6.521c0-.996.26-1.76.779-2.294.52-.533 1.268-.8 2.246-.8s1.727.267 2.246.8c.519.534.779 1.298.779 2.294v6.398c0 .996-.26 1.76-.779 2.294-.52.533-1.268.799-2.246.799s-1.727-.266-2.246-.8c-.52-.533-.779-1.297-.779-2.293v-6.398z" fill="#3E4B6B"/><path fill-rule="evenodd" clip-rule="evenodd" d="M23.492 28.217a3.56 3.56 0 01-2.583-1.113 3.845 3.845 0 01-1.07-2.686c0-1.014.38-1.968 1.068-2.684a3.554 3.554 0 015.165-.002c1.425 1.482 1.425 3.892 0 5.374a3.554 3.554 0 01-2.58 1.11zM3.654 7.787A3.56 3.56 0 011.07 6.673 3.85 3.85 0 010 3.987a3.85 3.85 0 011.068-2.683A3.562 3.562 0 013.653.189c.975 0 1.892.395 2.58 1.112a3.852 3.852 0 011.071 2.687c0 1.015-.38 1.969-1.07 2.687a3.556 3.556 0 01-2.58 1.112z" fill="#EDC128"/><path fill-rule="evenodd" clip-rule="evenodd" d="M23.33 7.787a3.56 3.56 0 01-2.584-1.113c-1.423-1.481-1.425-3.89-.002-5.37A3.561 3.561 0 0123.328.188a3.56 3.56 0 012.582 1.113c1.423 1.48 1.423 3.892 0 5.375a3.561 3.561 0 01-2.58 1.11z" fill="#4C98C0"/><path fill-rule="evenodd" clip-rule="evenodd" d="M3.748 28.217a3.565 3.565 0 01-2.584-1.113 3.846 3.846 0 01-1.068-2.686 3.85 3.85 0 011.07-2.685 3.34 3.34 0 01.515-.435c.062-.046.12-.081.179-.12.135-.08.27-.153.396-.213.068-.032.138-.065.212-.095.132-.05.278-.096.445-.137l.093-.026.056-.017.813-.057c.103.004.214.018.331.034l.047.006c.027.004.065.007.102.01l.033.002.037.007h.032c.06.002.12.004.178.004 1.401 0 2.785-.621 3.796-1.703a5.647 5.647 0 001.52-3.975v-.043l-.008-.045c-.008-.04-.01-.082-.012-.123a3.164 3.164 0 00-.014-.145l-.009-.086c-.008-.073-.016-.144-.02-.217l.062-.848c.004-.022.012-.041.017-.062l.015-.052c.037-.16.077-.322.136-.478a4.273 4.273 0 01.301-.643c.035-.06.068-.12.108-.179a3.558 3.558 0 015.588-.54c1.422 1.48 1.421 3.89-.003 5.372a3.524 3.524 0 01-.691.55 4.078 4.078 0 01-.396.217 2.99 2.99 0 01-.211.095c-.14.053-.288.1-.444.136l-.087.025-.06.018-.82.06a3.523 3.523 0 01-.304-.031l-.073-.01a1.073 1.073 0 00-.101-.01l-.029-.002-.042-.008h-.033a4.621 4.621 0 00-.178-.003c-1.401 0-2.784.62-3.794 1.701a5.65 5.65 0 00-1.522 3.978l.001.043.008.043c.007.041.009.082.012.123l.013.145c.002.03.008.081.014.133.006.058.013.115.013.173v.02l-.058.813-.038.14c-.04.176-.084.331-.134.47a5.076 5.076 0 01-.298.638 3.744 3.744 0 01-.531.718 3.554 3.554 0 01-2.58 1.113z" fill="#EDC128"/><path fill-rule="evenodd" clip-rule="evenodd" d="M13.61 28.217a3.561 3.561 0 01-2.584-1.114 3.853 3.853 0 01-1.07-2.685c0-1.014.38-1.968 1.068-2.683a3.627 3.627 0 01.693-.552c.134-.083.263-.154.397-.218.071-.033.14-.067.211-.095a3.29 3.29 0 01.44-.133l.145-.043.826-.063c.098.005.203.02.313.034l.06.009c.041.004.075.008.11.008.013.001.027.001.04.003l.025.003.035.004.182.003c1.399 0 2.78-.62 3.788-1.7a5.65 5.65 0 001.522-3.978l-.005-.176-.015-.02-.002-.02a2.809 2.809 0 00-.008-.124l-.014-.122c-.007-.067-.016-.133-.018-.2l.057-.822c.004-.02.032-.122.04-.152.046-.197.086-.34.133-.468.026-.077.058-.147.09-.22.058-.133.126-.268.21-.416l.016-.027c.028-.05.055-.1.089-.148a3.562 3.562 0 013.007-1.657 3.56 3.56 0 012.581 1.112c1.423 1.481 1.423 3.893 0 5.375a3.73 3.73 0 01-.517.435c-.041.03-.08.054-.12.08l-.064.04a4.101 4.101 0 01-.385.21c-.073.034-.142.067-.214.095a3.79 3.79 0 01-.447.137c-.035.008-.064.018-.093.027-.02.005-.038.012-.057.016l-.812.058c-.119-.005-.247-.023-.372-.04-.042-.005-.075-.007-.107-.009-.013 0-.025 0-.038-.002l-.069-.008a4.363 4.363 0 00-.18-.003c-1.4 0-2.78.62-3.79 1.7a5.648 5.648 0 00-1.52 3.978l.001.043.009.041c.007.043.009.087.012.13l.01.132.013.126c.007.064.015.129.017.193l-.06.834-.036.13c-.04.177-.083.332-.134.477a3.8 3.8 0 01-.083.204l-.01.023a4.266 4.266 0 01-.317.59 3.548 3.548 0 01-2.998 1.648zM3.75 17.96a3.56 3.56 0 01-2.583-1.111 3.858 3.858 0 01-1.07-2.688c0-1.013.378-1.966 1.068-2.683a3.666 3.666 0 01.697-.555 4.27 4.27 0 01.608-.31c.135-.051.283-.096.437-.133L3 10.453l.05-.015.827-.062c.107.005.223.02.345.038l.026.004a1.7 1.7 0 00.108.008c.012 0 .024 0 .036.002l.035.006.034.002c.06.002.121.003.182.003 1.398 0 2.779-.62 3.788-1.701a5.65 5.65 0 001.52-3.978l-.001-.042-.008-.04c-.009-.047-.01-.093-.013-.14a2.727 2.727 0 00-.008-.117l-.013-.117c-.008-.07-.017-.14-.018-.21l.054-.799.006-.018v-.016l.034-.124c.047-.204.088-.352.134-.482.026-.072.059-.144.091-.218.06-.136.13-.275.21-.415L10.43 2c.032-.055.063-.11.099-.164A3.562 3.562 0 0113.53.189c.976 0 1.893.395 2.583 1.113 1.423 1.48 1.422 3.892-.002 5.372a3.47 3.47 0 01-.514.434c-.056.041-.104.07-.154.101l-.027.017a4.114 4.114 0 01-.603.31 3.46 3.46 0 01-.447.136l-.096.027-.057.017-.81.059a4.238 4.238 0 01-.327-.035l-.05-.006c-.037-.005-.072-.007-.105-.01-.014 0-.027 0-.04-.002l-.028-.004-.035-.003a4.474 4.474 0 00-.181-.003c-1.399 0-2.78.62-3.79 1.7a5.654 5.654 0 00-1.52 3.978v.043l.008.042c.008.042.01.086.013.13a3.357 3.357 0 00.024.258c.007.063.015.125.016.188l-.058.828-.018.066-.02.074c-.04.185-.084.34-.133.476-.025.072-.06.146-.092.222-.06.137-.128.272-.207.41-.038.065-.073.127-.111.185a3.556 3.556 0 01-3 1.648z" fill="#4C98C0"/></svg>
